public/logos/18_eu/3.svg

<svg xmlns="http://www.w3.org/2000/svg" viewBox="0 0 38 38"  fill-rule="nonzero" stroke-linejoin="round" stroke-miterlimit="2" xmlns:v="https://vecta.io/nano"><path d="M36.72 18.72c0-9.875-8.125-18-18-18s-18 8.125-18 18 8.125 18 18 18 18-8.125 18-18" fill="#202020"/><path d="M12.38 23.79l1-.27a6.84 6.84 0 0 0 2 3.12 4.27 4.27 0 0 0 2.76.93c1.026.036 2.02-.368 2.73-1.11A4.2 4.2 0 0 0 22 23.52a3.92 3.92 0 0 0-1.08-2.91c-.807-.76-1.894-1.151-3-1.08a8.51 8.51 0 0 0-1.74.24l-.18-.21c.18-.57.39-1.35.6-2.31a5.65 5.65 0 0 0 .9.06 3.86 3.86 0 0 0 2.64-.9c.655-.586 1.021-1.431 1-2.31a2.62 2.62 0 0 0-.81-2 3.05 3.05 0 0 0-2.19-.78 4.71 4.71 0 0 0-1.74.33c-.409.142-.779.379-1.08.69a9.17 9.17 0 0 0-.84 2l-1.17-.06c.453-1.532.788-3.097 1-4.68.713-.487 1.49-.871 2.31-1.14.832-.222 1.689-.333 2.55-.33a6 6 0 0 1 4 1.23c.941.77 1.473 1.935 1.44 3.15a4.08 4.08 0 0 1-.8 2.49c-.701.875-1.608 1.562-2.64 2a6.99 6.99 0 0 1 2.64.75 3.79 3.79 0 0 1 1.38 1.59c.367.725.553 1.528.54 2.34-.029 2.275-1.188 4.392-3.09 5.64a9.73 9.73 0 0 1-5.85 1.89c-.636.004-1.27-.066-1.89-.21a9.01 9.01 0 0 1-1.83-.66l-.69-4.55z" fill="#fff"/></svg>

<?xml version="1.0" encoding="UTF-8" standalone="no"?>
<!DOCTYPE svg PUBLIC "-//W3C//DTD SVG 1.1//EN" "http://www.w3.org/Graphics/SVG/1.1/DTD/svg11.dtd">
<svg width="100%" height="100%" viewBox="0 0 38 38" version="1.1" xmlns="http://www.w3.org/2000/svg" xmlns:xlink="http://www.w3.org/1999/xlink" xml:space="preserve" xmlns:serif="http://www.serif.com/" style="fill-rule:evenodd;clip-rule:evenodd;stroke-linejoin:round;stroke-miterlimit:2;">
    <path d="M36.72,18.72C36.72,8.845 28.595,0.72 18.72,0.72C8.845,0.72 0.72,8.845 0.72,18.72C0.72,28.595 8.845,36.72 18.72,36.72C28.595,36.72 36.72,28.595 36.72,18.72" style="fill:rgb(32,32,32);fill-rule:nonzero;"/>
    <path d="M12.38,23.79L13.38,23.52C13.747,24.724 14.439,25.804 15.38,26.64C16.162,27.264 17.14,27.593 18.14,27.57C19.166,27.606 20.16,27.202 20.87,26.46C21.614,25.664 22.019,24.609 22,23.52C22.056,22.443 21.665,21.39 20.92,20.61C20.113,19.85 19.026,19.459 17.92,19.53C17.333,19.55 16.75,19.63 16.18,19.77L16,19.56C16.18,18.99 16.39,18.21 16.6,17.25C16.898,17.294 17.199,17.314 17.5,17.31C18.461,17.35 19.403,17.028 20.14,16.41C20.795,15.824 21.161,14.979 21.14,14.1C21.17,13.348 20.874,12.619 20.33,12.1C19.732,11.561 18.944,11.281 18.14,11.32C17.544,11.319 16.954,11.431 16.4,11.65C15.991,11.792 15.621,12.029 15.32,12.34C14.962,12.971 14.68,13.642 14.48,14.34L13.31,14.28C13.763,12.748 14.098,11.183 14.31,9.6C15.023,9.113 15.8,8.729 16.62,8.46C17.452,8.238 18.309,8.127 19.17,8.13C20.607,8.047 22.028,8.483 23.17,9.36C24.111,10.13 24.643,11.295 24.61,12.51C24.624,13.405 24.343,14.28 23.81,15C23.109,15.875 22.202,16.562 21.17,17C22.091,17.073 22.988,17.328 23.81,17.75C24.411,18.139 24.889,18.69 25.19,19.34C25.557,20.065 25.743,20.868 25.73,21.68C25.701,23.955 24.542,26.072 22.64,27.32C20.946,28.565 18.893,29.229 16.79,29.21C16.154,29.214 15.52,29.144 14.9,29C14.268,28.847 13.654,28.625 13.07,28.34C12.89,27 12.65,25.41 12.38,23.79Z" style="fill:white;fill-rule:nonzero;"/>
</svg>
